icon-svg/zwavejs.svg

<svg xmlns="http://www.w3.org/2000/svg" fill="#44739e" viewBox="0 0 24 24"><path d="m21.567 14.02-4.035-6.989A.619.619 0 0 0 17 6.722H8.927a.619.619 0 0 0-.536.309L4.356 14.02a.617.617 0 0 0 0 .619l4.035 6.989a.619.619 0 0 0 .536.309H17a.619.619 0 0 0 .536-.309l.7-1.222a.052.052 0 0 0-.019-.073l-.979-.565a.052.052 0 0 0-.073.019l-.527.913H9.284l-3.678-6.37 3.678-6.37h7.355l3.678 6.37-2 3.47h-6.652l3.935-6.819a.62.62 0 0 0-.536-.929H9.6a.054.054 0 0 0-.054.054v1.13a.054.054 0 0 0 .054.054H14l-3.937 6.819a.619.619 0 0 0 .536.928h8.077a.617.617 0 0 0 .535-.309l2.361-4.089a.617.617 0 0 0-.005-.619M12.961 3.3V2.063H6.237a.619.619 0 0 0-.536.309L2.35 8.176l1.072.624 3.172-5.5ZM4.475 9.376l1.055.609L8 5.7h4.945V4.484H7.65a.609.609 0 0 0-.527.3z"/></svg>

<?xml version="1.0" encoding="UTF-8"?>
<svg width="24px" fill="#44739e" height="24px" viewBox="0 0 24 24" version="1.1" xmlns="http://www.w3.org/2000/svg" xmlns:xlink="http://www.w3.org/1999/xlink">
            <path d="M 21.567,14.02 17.532,7.031 A 0.619,0.619 0 0 0 17,6.722 H 8.927 A 0.619,0.619 0 0 0 8.391,7.031 L 4.356,14.02 a 0.617,0.617 0 0 0 0,0.619 l 4.035,6.989 a 0.619,0.619 0 0 0 0.536,0.309 H 17 a 0.619,0.619 0 0 0 0.536,-0.309 l 0.7,-1.222 a 0.052,0.052 0 0 0 -0.019,-0.073 l -0.979,-0.565 a 0.052,0.052 0 0 0 -0.073,0.019 L 16.638,20.7 H 9.284 L 5.606,14.33 9.284,7.96 h 7.355 l 3.678,6.37 -2,3.47 H 11.665 L 15.6,10.981 A 0.62,0.62 0 0 0 15.064,10.052 H 9.6 a 0.054,0.054 0 0 0 -0.054,0.054 v 1.13 A 0.054,0.054 0 0 0 9.6,11.29 H 14 l -3.937,6.819 a 0.619,0.619 0 0 0 0.536,0.928 h 8.077 a 0.617,0.617 0 0 0 0.535,-0.309 l 2.361,-4.089 A 0.617,0.617 0 0 0 21.567,14.02 Z M 12.961,3.3 V 2.063 H 6.237 A 0.619,0.619 0 0 0 5.701,2.372 L 2.35,8.176 3.422,8.8 6.594,3.3 Z M 4.475,9.376 5.53,9.985 8,5.7 h 4.945 V 4.484 H 7.65 a 0.609,0.609 0 0 0 -0.527,0.3 z"/>

</svg>
